src/assets/icons/math-symbols,fancy,add.svg

<svg width="48" height="48" viewBox="0 0 48 48" fill="none" xmlns="http://www.w3.org/2000/svg">
<path d="M11 24C11 22.6706 11 22.006 11.3034 21.5199C11.4646 21.2616 11.6827 21.0436 11.9409 20.8824C12.427 20.5789 13.0917 20.5789 14.4211 20.5789H20.5789V14.4211C20.5789 13.0917 20.5789 12.427 20.8824 11.9409C21.0436 11.6827 21.2616 11.4646 21.5199 11.3034C22.006 11 22.6706 11 24 11C25.3294 11 25.994 11 26.4801 11.3034C26.7384 11.4646 26.9564 11.6827 27.1176 11.9409C27.4211 12.427 27.4211 13.0917 27.4211 14.4211V20.5789H33.5789C34.9083 20.5789 35.573 20.5789 36.0591 20.8824C36.3173 21.0436 36.5354 21.2616 36.6966 21.5199C37 22.006 37 22.6706 37 24C37 25.3294 37 25.994 36.6966 26.4801C36.5354 26.7384 36.3173 26.9564 36.0591 27.1176C35.573 27.4211 34.9083 27.4211 33.5789 27.4211H27.4211V33.5789C27.4211 34.9083 27.4211 35.573 27.1176 36.0591C26.9564 36.3173 26.7384 36.5354 26.4801 36.6966C25.994 37 25.3294 37 24 37C22.6706 37 22.006 37 21.5199 36.6966C21.2616 36.5354 21.0436 36.3173 20.8824 36.0591C20.5789 35.573 20.5789 34.9083 20.5789 33.5789V27.4211H14.4211C13.0917 27.4211 12.427 27.4211 11.9409 27.1176C11.6827 26.9564 11.4646 26.7384 11.3034 26.4801C11 25.994 11 25.3294 11 24Z" fill="black"/>
</svg>

<svg xmlns="http://www.w3.org/2000/svg" width="48" height="48" fill="none" viewBox="0 0 48 48">
  <path fill="#000" d="M11 24c0-1.33 0-1.994.303-2.48a2 2 0 01.638-.638c.486-.303 1.15-.303 2.48-.303h6.158V14.42c0-1.33 0-1.994.303-2.48a2 2 0 01.638-.638C22.006 11 22.67 11 24 11s1.994 0 2.48.303a2 2 0 01.638.638c.303.486.303 1.15.303 2.48v6.158h6.158c1.33 0 1.994 0 2.48.303a2 2 0 01.638.638C37 22.006 37 22.67 37 24s0 1.994-.303 2.48a2 2 0 01-.638.638c-.486.303-1.15.303-2.48.303H27.42v6.158c0 1.33 0 1.994-.303 2.48a2 2 0 01-.638.638C25.994 37 25.33 37 24 37s-1.994 0-2.48-.303a2 2 0 01-.638-.638c-.303-.486-.303-1.15-.303-2.48V27.42H14.42c-1.33 0-1.994 0-2.48-.303a2 2 0 01-.638-.638C11 25.994 11 25.33 11 24z"/>
</svg>
